!!!!SEGMENT: pl-gd--ee-1638--005-013_marenzio-luca--il-primo-libro-de-madrigali-spirituali-a-cinque-voci-signor-cui-gia-fu-poco.krn
!!!cenid: 15xx:966
!!!COM: Marenzio, Luca
!!!COM-rismid: pe30003955
!!!CDT: ~1553-1599/08/22
!!!CNT: Italian
!!!GTL: Il Primo libro de madrigali spirituali a cinque voci
!!!OTL: Signor cui gia fu poco
!!!OMV: 013
!!!PDT: 1588
!!!AGN:
!!!SMS-siglum: PL-GD
!!!SMS-shelfmark: Ee 1638
!!!SMS-shelfwork: 005-013 G
!!!SMS-variant:
!!!SMS-altvar:
!!!NIFC-rismid: 990039269
!!!URL-scan: https://repozytorium.nifc.pl/islandora/object/pl-gd%3A57883/datastream/PDF/view
!!!ONB-nifc: UWAGA: zbiór na stronach: Canto: s. 666-677, Alto: s. 514-525, Tenore: s. 362-373, Bassus: s. 210-221, Quinto: s. 58-69. Uwaga: utwory podzielone wg tytułów w spisach treści dostępnych na końcu każdej księgi głosowej.
!!!AIN: 1 alto 1 bass  1 soprn 1 tenor  1 vox
!!!key: D
**kern	**text	**kern	**text	**kern	**text	**kern	**text	**kern	**text
*part5	*part5	*part4	*part4	*part3	*part3	*part2	*part2	*part1	*part1
*staff5	*staff5	*staff4	*staff4	*staff3	*staff3	*staff2	*staff2	*staff1	*staff1
*I"QVINTO	*	*I"BASSO	*	*I"TENORE	*	*I"ALTO	*	*I"CANTO	*
*I'V	*	*I'B	*	*I'T	*	*I'A	*	*I'S	*
*ICvox	*	*ICvox	*	*ICvox	*	*ICvox	*	*ICvox	*
*Ivox	*	*Ibass 	*	*Itenor 	*	*Ialto	*	*Isoprn	*
*clefC3	*	*clefF3	*	*clefC3	*	*clefC2	*	*clefG2	*
*k[]	*	*k[]	*	*k[]	*	*k[]	*	*k[]	*
*D:	*	*D:	*	*D:	*	*D:	*	*D:	*
*M2/1	*	*M2/1	*	*M2/1	*	*M2/1	*	*M2/1	*
*met(C|)	*	*met(C|)	*	*met(C|)	*	*met(C|)	*	*met(C|)	*
=1-	=1-	=1-	=1-	=1-	=1-	=1-	=1-	=1-	=1-
00r	.	00r	.	0r	.	1r	.	1a	SI-
.	.	.	.	.	.	1d	SI-	1dd	-gnor
=2-	=2-	=2-	=2-	=2-	=2-	=2-	=2-	=2-	=2-
.	.	.	.	1r	.	1g	-gnor	2r	.
.	.	.	.	.	.	.	.	2b\	cui
.	.	.	.	1A	SI-	2r	.	4cc#X\	già
.	.	.	.	.	.	.	.	2dd\	fu
.	.	.	.	.	.	2e/	cui	.	.
.	.	.	.	.	.	.	.	4cc#X\	po-
=3-	=3-	=3-	=3-	=3-	=3-	=3-	=3-	=3-	=3-
2r	.	1D	SI-	1d	-gnor	4f#X\	già	2dd\	-co
.	.	.	.	.	.	2g\	fu	.	.
1d	SI-	.	.	.	.	.	.	2a/	For-
.	.	.	.	.	.	4f#X\	po-	.	.
.	.	1G	-gnor	2r	.	2g\	-co	2b\	-mar
2g\	-gnor	.	.	2B/	cui	2d/	For-	2b\	i
=4-	=4-	=4-	=4-	=4-	=4-	=4-	=4-	=4-	=4-
2r	.	2r	.	4c#X/	già	2a\	-mar	1ee	cie-
.	.	.	.	2d\	fu	.	.	.	.
2e\	cui	2A\	cui	.	.	2a\	i	.	.
.	.	.	.	4c#X/	po-	.	.	.	.
4f#X\	già	2D/	già	2d\	-co	1a	cie-	0dd	-li
2g\	fu	.	.	.	.	.	.	.	.
.	.	2D/	fu	2A/	For-	.	.	.	.
4f#X\	po-	.	.	.	.	.	.	.	.
=5-	=5-	=5-	=5-	=5-	=5-	=5-	=5-	=5-	=5-
2g\	-co	1G	po-	2B/	-mar	2d/	-li	.	.
2d\	For-	.	.	2B/	i	1g	For-	.	.
2e\	-mar	2C/	-co	1g	cie-	.	.	2r	.
!	!	!	!	!	!	!LO:SIC:v:t=custos cc	!	!LO:SIC:v:t=custos ee	!
1e\	i	2c\	For-	.	.	2cc\	-mar	2ee\	For-
!	!	!	!	!	!	!LO:LB:g=original	!	!LO:LB:g=original	!
=6-	=6-	=6-	=6-	=6-	=6-	=6-	=6-	=6-	=6-
.	.	2A\	-mar	1a	-li	1cc	i	2ee\	-mar
2.a\	cie-	2A\	i	.	.	.	.	2ee\	i
.	.	1d	cie-	1r	.	1a	cie-	1ff	cie-
4g\	.	.	.	.	.	.	.	.	.
!LO:SIC:v:t=custos g	!	!	!	!	!	!	!	!	!
2fny\	.	.	.	.	.	.	.	.	.
!LO:LB:g=original	!	!	!	!	!	!	!	!	!
=7-	=7-	=7-	=7-	=7-	=7-	=7-	=7-	=7-	=7-
!	!	!	!	!LO:SIC:v:t=custos g	!	!	!	!	!
2g\	-li e	2c\	-li e in-	0r	.	2cc\	-li e in	2ee\	-li e
!	!	!LO:SIC:v:t=custos G	!	!	!	!	!	!	!
1g	in-	1c	-fie-	.	.	1cc	ſie-	1ee	in-
!	!	!LO:LB:g=original	!	!	!	!	!	!	!
4g\	-fie-	4G\	-me	.	.	4b\	-me	4dd\	-ſie-
4e\	-me	4A\	spie-	.	.	4a\	spie-	4ccny\	-me
!	!	!	!	!LO:LB:g=original	!	!	!	!	!
=8-	=8-	=8-	=8-	=8-	=8-	=8-	=8-	=8-	=8-
4.e\	spie-	1E	-gar	2r	.	2g\	-gar	2b/	Spie-
8d\	-gar	.	.	.	.	.	.	.	.
8e\	.	.	.	8g\	Pa-	2r	.	8ee\	-gar
8f\	.	.	.	8f\	.	.	.	8dd\	l'a-
4g\	.	.	.	8e\	.	.	.	8cc\	.
.	.	.	.	8d\	.	.	.	8b\	.
2f\	l'a-	1F	l'a-	4cny/	.	8cc\	l'a-	4a/	.
.	.	.	.	.	.	8b\	.	.	.
.	.	.	.	4c/	-ria	8a\	.	4a/	-ria
.	.	.	.	.	.	8g\	.	.	.
2a\	-ria	.	.	8f\	l'a-	4fny\	.	8aa\	l'a-
.	.	.	.	8e\	.	.	.	8gg\	.
.	.	.	.	8d\	.	4a\	-ria	8ff\	.
.	.	.	.	8c\	.	.	.	8ee\	.
=9-	=9-	=9-	=9-	=9-	=9-	=9-	=9-	=9-	=9-
4r	.	4G\	-ria	4B/	.	2r	.	4dd\	.
4d\	la	4G\	la	2g\	-ria	.	.	4b/	-ria
8e\	ter-	8c\	ter-	.	.	4r	.	2.cc\	la
8d\	.	8B\	.	.	.	.	.	.	.
8c/	.	8A\	.	4a\	la	4e/	la	.	.
8B/	.	8G\	.	.	.	.	.	.	.
4A/	.	4F/	.	8a\	ter-	4.f\	ter-	.	.
.	.	.	.	8g\	.	.	.	.	.
4f\	-ra'l	4D/	-ra'l	8f\	.	.	.	2dd\	ter-
.	.	.	.	8e\	.	8g\	.	.	.
8f\	ma-	8d\	ma-	4d\	.	4a\	.	.	.
8e\	.	8c\	.	.	.	.	.	.	.
!	!	!	!	!	!	!LO:N:acc=#	!	!	!
8d\	.	8B\	.	4.G/	-ra il	4bn\	-ra il	2dd\	-ra'l
8c\	.	8A\	.	.	.	.	.	.	.
=10-	=10-	=10-	=10-	=10-	=10-	=10-	=10-	=10-	=10-
!	!	!	!	!	!	!LO:SIC:v:t=custos g	!	!	!
4B/	.	4G\	.	.	.	2b\	ma-	.	.
.	.	.	.	8A/	.	.	.	.	.
!LO:SIC:v:t=custos g	!	!	!	!	!	!	!	!LO:SIC:v:t=custos ee	!
4g\	-re e'l	4E/	-re e'l	4B/	.	.	.	2ee\	ma-
!LO:LB:g=original	!	!	!	!	!	!LO:LB:g=original	!	!	!
8g\	fo-	8e\	fo-	2c/	mar	4g\	-re e'l	.	.
8f\	.	8d\	.	.	.	.	.	.	.
!	!	!	!	!	!	!	!	!LO:LB:g=original	!
8e\	.	8c\	.	.	.	4.cc\	fo-	2ee\	-re e'l
8d\	.	8B\	.	.	.	.	.	.	.
2c/	.	8A\	.	4e\	e'l	.	.	.	.
!	!	!LO:SIC:v:t=custos F	!	!	!	!	!	!	!
.	.	8G\	.	.	.	8b\	.	.	.
!	!	!LO:LB:g=original	!	!	!	!	!	!	!
.	.	8F/	.	4.A/	fo-	8a\	.	2ff\	fo-
.	.	8E/	.	.	.	8g\	.	.	.
4F/	-co	4D/	.	.	.	1.a\	.	.	.
.	.	.	.	8B/	.	.	.	.	.
4A/	e'l	8C/	.	8c\	.	.	.	8ee\	.
!	!	!	!	!LO:SIC:v:t=custos e	!	!	!	!	!
.	.	8BB/	.	8d\	.	.	.	8dd\	.
!	!	!	!	!LO:LB:g=original	!	!	!	!	!
=11-	=11-	=11-	=11-	=11-	=11-	=11-	=11-	=11-	=11-
1A	fo-	4AA/	.	1e	.	.	.	4cc#X\	.
.	.	4GG/	.	.	.	.	.	2dd\	.
.	.	2AA/	.	.	.	.	.	.	.
.	.	.	.	.	.	.	.	4cc#X\	.
1A	-co	1D	-co	1d	-co	1f	-co	1dd	-co
=12-	=12-	=12-	=12-	=12-	=12-	=12-	=12-	=12-	=12-
2r	.	1d	L'al-	0r	.	1a	L'al-	2r	.
1d	L'al-	.	.	.	.	.	.	1ff	L'al-
.	.	1A	-ma	.	.	1a	-ma	.	.
2c#X/	-ma	.	.	.	.	.	.	2ee\	-ma
=13-	=13-	=13-	=13-	=13-	=13-	=13-	=13-	=13-	=13-
0r	.	00r	.	1a	L'al-	2r	.	2r	.
.	.	.	.	.	.	1a	L'al-	1ccny	L'al-
.	.	.	.	1e	-ma	.	.	.	.
.	.	.	.	.	.	2g#X\	-ma	2b/	-ma
=14-	=14-	=14-	=14-	=14-	=14-	=14-	=14-	=14-	=14-
2e\	che	.	.	2A/	che	2a\	che	2cc#X\	che
1e	pl-	.	.	1A	plo-	1a	plo-	1cc#	plo-
2f#X\	-ra e	.	.	2d\	-ra e	2a\	-ra e	2dd\	-ra e
=15-	=15-	=15-	=15-	=15-	=15-	=15-	=15-	=15-	=15-
1f#yX	gem-	00r	.	1B	gem-	1b	gem-	1dd#X	gem-
1f#	-me	.	.	1B	-me	1b	-me	1dd#	-me
=16-	=16-	=16-	=16-	=16-	=16-	=16-	=16-	=16-	=16-
2g\	Ne	.	.	2e\	Ne	2b\	Ne	2ee\	Ne
1g	le	.	.	1e	le	1b	le	1ee	le
2g\	ſue an-	.	.	2B/	ſue an-	2b\	ſue an-	1ddny\	ſue an-
=17-	=17-	=17-	=17-	=17-	=17-	=17-	=17-	=17-	=17-
!LO:SIC:v:t=custos d	!	!	!	!	!	!LO:SIC:v:t=custos g	!	!	!
1e	-go-	00r	.	1c	-go-	1gny	-go-	.	.
.	.	.	.	.	.	.	.	1ccny	-go-
!LO:LB:g=original	!	!	!	!	!	!LO:LB:g=original	!	!	!
1d	-ſc' eſ-	.	.	1G	-ſc'eſ-	1g	-ſc'eſ-	.	.
!	!	!	!	!	!	!	!	!LO:SIC:v:t=custos a	!
.	.	.	.	.	.	.	.	1b\	-ſc'e
!	!	!	!	!	!	!	!	!LO:LB:g=original	!
=18-	=18-	=18-	=18-	=18-	=18-	=18-	=18-	=18-	=18-
1cny	-tre-	.	.	1A	-tre-	1e	-tre-	.	.
.	.	.	.	.	.	.	.	1a	ſtre-
1B	-me	.	.	1E	-me	1e	-me	.	.
.	.	.	.	.	.	.	.	2g#X/	-me
=19-	=19-	=19-	=19-	=19-	=19-	=19-	=19-	=19-	=19-
4r	.	0r	.	4r	.	4r	.	4r	.
4.c/	Piac-	.	.	4.A/	Piac-	4.e/	Piac-	4.a/	Piac-
8c/	-cia-	.	.	8A/	-cia-	8e/	-cia-	8a/	-cia-
4d\	-ti an-	.	.	4G/	-ti an-	4g\	-ti an-	4b/	-ti an-
!	!	!	!	!LO:SIC:v:t=custos A	!	!	!	!	!
4e\	-cor	.	.	4c/	-cor	4g\	-cor	4cc\	-cor
!	!	!	!	!LO:LB:g=original	!	!	!	!	!
4a\	gra-	.	.	4A/	gra-	4cc\	gra-	4ee\	gra-
2g#X\	-di-	.	.	2e\	-di-	2b\	-di-	2ee\	-di-
=20-	=20-	=20-	=20-	=20-	=20-	=20-	=20-	=20-	=20-
4a\	-re	4r	.	4A/	-re	2cc\	-re	4ee\	-re
*	*ij	*	*	*	*ij	*	*	*	*ij
4.e\	Piac-	4.A\	Piac-	4.c/	Piac-	.	.	4.a/	Piac-
.	.	.	.	.	.	2r	.	.	.
8e\	-cia-	8A\	-cia-	8c/	-cia-	.	.	8a/	-cia-
4gny\	-ti an-	4G\	-ti an-	4d\	-ti an-	.	.	4b/	-ti an-
4g\	-cor	4c\	-cor	4e\	-cor	1r	.	4cc\	-cor
4a\	gra-	4F/	gra-	4f\	gra-	.	.	4cc\	gra-
2g\	-di-	2G\	-di-	2d\	-di-	.	.	2b/	-di-
=21-	=21-	=21-	=21-	=21-	=21-	=21-	=21-	=21-	=21-
!	!	!LO:SIC:v:t=custos c	!	!	!	!	!	!	!
2g\	-re	2C/	-re	1e	-re	2r	.	2cc\	-re
*	*Xij	*	*	*	*Xij	*	*	*	*Xij
!	!	!LO:LB:g=original	!	!	!	!	!	!	!
1e	E	1c	E	.	.	1cc	E	1gny	E
.	.	.	.	1r	.	.	.	.	.
2fny\	pie-	2F/	pie-	.	.	2cc\	pie-	2a/	pie-
=22-	=22-	=22-	=22-	=22-	=22-	=22-	=22-	=22-	=22-
!LO:SIC:v:t=custos c	!	!	!	!	!	!	!	!LO:SIC:v:t=custos a	!
1d	-to-	1B-X	-to-	1r	.	1f	-to-	1b-X	-to-
!LO:LB:g=original	!	!	!	!	!	!	!	!LO:LB:g=original	!
2c/	-ſo	2F/	-ſo	4r	.	2f\	-ſo	2a/	-ſo
.	.	.	.	4c/	ri-	.	.	.	.
2r	.	2D/	ri-	1f\	-guar-	2a\	ri-	1dd\	ri-
=23-	=23-	=23-	=23-	=23-	=23-	=23-	=23-	=23-	=23-
2r	.	1A	-guar-	.	.	1.a	-guar-	.	.
2A/	ri-	.	.	1e	-d'al	.	.	1cc	-guar-
1e	-guard'	1E	-d'al	.	.	.	.	.	.
.	.	.	.	4d\	mio	2g\	-d'al	2bny/	-d'al
.	.	.	.	4c/	fal-	.	.	.	.
=24-	=24-	=24-	=24-	=24-	=24-	=24-	=24-	=24-	=24-
!	!	!	!	!	!	!LO:SIC:v:t=custos a	!	!	!
1e	al	1E	mio	4B/	-li-	4g#X\	mio	4b/	mio
!	!	!	!	!	!	!LO:LB:g=original	!	!	!
.	.	.	.	2A/	.	4a\	fal-	4cc\	fal-
.	.	.	.	.	.	2b#X\	-li-	2.ee\	-li-
.	.	.	.	4G#X/	-re	.	.	.	.
4c/	mio	1F	fal-	4r	.	0a	-re	.	.
!	!	!	!	!LO:SIC:v:t=custos f	!	!	!	!	!
2f\	fal-	.	.	4A/	al	.	.	4dd\	.
!	!	!	!	!LO:LB:g=original	!	!	!	!	!
.	.	.	.	4f\	mio	.	.	1dd\	.
2a\	-li-	.	.	4f\	fal-	.	.	.	.
=25-	=25-	=25-	=25-	=25-	=25-	=25-	=25-	=25-	=25-
.	.	1A	-li-	2e\	-li-	.	.	.	.
8g\	.	.	.	.	.	.	.	.	.
8f\	.	.	.	.	.	.	.	.	.
2e\	.	.	.	2A/	-re	.	.	2cc#X\	-re
4d\	-re	2D/	-re	4r	.	4r	.	4r	.
4.f\	Piac-	.	.	4.d\	Piac-	4.a\	Piac-	4.dd\	Piac-
.	.	2r	.	.	.	.	.	.	.
8f\	-cia-	.	.	8d\	-cia-	8a\	-cia-	8dd\	-cia-
4g\	-ti an-	.	.	4c/	-ti an-	4cc\	-ti an-	4ee\	-ti an-
=26-	=26-	=26-	=26-	=26-	=26-	=26-	=26-	=26-	=26-
4a\	-cor	1r	.	4f\	-cor	4cc\	-cor	4ff\	-cor
4a\	gra-	.	.	4d\	gra-	4dd\	gra-	4ff\	gra-
2g#X\	-di-	.	.	2e\	-di-	2bny\	-di-	2ee\	-di-
4a\	-re	4r	.	4A/	-re	2cc\	-re	4ee\	-re
*	*ij	*	*	*	*ij	*	*	*	*ij
4.e\	Piac-	4.A\	Piac-	4.c/	Piac-	.	.	4.a/	Piac-
.	.	.	.	.	.	2r	.	.	.
!LO:SIC:v:t=custos g	!	!	!	!	!	!	!	!LO:SIC:v:t=custos b	!
8e\	-cia-	8A\	-cia-	8c/	-cia-	.	.	8a/	-cia-
!LO:LB:g=original	!	!	!	!	!	!	!	!LO:LB:g=original	!
4g#\	-ti an-	4G\	-ti an-	4d\	-ti an-	.	.	4b/	-ti an-
=27-	=27-	=27-	=27-	=27-	=27-	=27-	=27-	=27-	=27-
4g#yX\	-cor	4c\	-cor	4e\	-cor	1r	.	4ccny\	-cor
4a\	gra-	4F/	gra-	4f\	gra-	.	.	4cc\	gra-
2g#\	-di-	2G\	-di-	2d\	-di-	.	.	2b/	-di-
!	!	!LO:SIC:v:t=custos c	!	!	!	!	!	!	!
2g#\	-re	2C/	-re	1e	-re	2r	.	2cc\	-re
*	*Xij	*	*	*	*Xij	*	*	*	*Xij
!	!	!LO:LB:g=original	!	!	!	!	!	!	!
1e\	E	1c\	E	.	.	1cc\	E	1g/	E
=28-	=28-	=28-	=28-	=28-	=28-	=28-	=28-	=28-	=28-
.	.	.	.	1r	.	.	.	.	.
2f\	pie-	2F/	pie-	.	.	2cc\	pie-	2a/	pie-
1d	-to-	1B-X	-to-	1r	.	1f	-to-	1b-X	-to-
=29-	=29-	=29-	=29-	=29-	=29-	=29-	=29-	=29-	=29-
2c/	-ſo	2F/	-ſo	4r	.	2f\	-ſo	2a/	-ſo
!	!	!	!	!LO:SIC:v:t=custos f	!	!	!	!	!
.	.	.	.	4c/	ri-	.	.	.	.
!	!	!	!	!LO:LB:g=original	!	!	!	!	!
2r	.	2D/	ri-	1f	-ſguar-	2a\	ri-	1dd	riſ-
2r	.	1A	-guar-	.	.	1.a	-guar-	.	.
2A/	r-	.	.	1e\	-d'al	.	.	1cc\	-guar-
=30-	=30-	=30-	=30-	=30-	=30-	=30-	=30-	=30-	=30-
1e	-guar-	1E	-d'al	.	.	.	.	.	.
!	!	!	!	!	!	!LO:SIC:v:t=custos g	!	!	!
.	.	.	.	4d\	mio	2gny\	-d'al	2bny/	-d'al
.	.	.	.	4c/	fal-	.	.	.	.
!	!	!	!	!	!	!LO:LB:g=original	!	!	!
1e	-d'al	1E	mio	4B/	-li-	4g#X\	mio	4b/	mio
.	.	.	.	2A/	.	4a\	fal-	4cc\	fal-
.	.	.	.	.	.	2b#X\	-li-	2.ee\	-li-
.	.	.	.	4G#X/	-re	.	.	.	.
=31-	=31-	=31-	=31-	=31-	=31-	=31-	=31-	=31-	=31-
4c/	mio	1F	fal-	4r	.	00.a	-re.	.	.
2f\	fal-	.	.	4A/	al	.	.	4dd\	.
.	.	.	.	4f\	mio	.	.	2.dd\	.
2a\	-li-	.	.	4f\	fal-	.	.	.	.
.	.	1A	-li-	1e	-li-	.	.	.	.
8gny\	.	.	.	.	.	.	.	8cc\	.
8f\	.	.	.	.	.	.	.	8b\	.
2e\	.	.	.	.	.	.	.	2cc#X\	.
=32-	=32-	=32-	=32-	=32-	=32-	=32-	=32-	=32-	=32-
00f#X	-re.	00D	-re.	00d	-re.	.	.	00dd	-re.
=33-	=33-	=33-	=33-	=33-	=33-	=33-	=33-	=33-	=33-
==	==	==	==	==	==	==	==	==	==
*-	*-	*-	*-	*-	*-	*-	*-	*-	*-
!!!system-decoration: [(s1,s2,s3,s4,s5)]
!!!ENC: Andrzej Gręziak
!!!END: 2022-06-29
!!!ENC: Natalia Wrzos
!!!END: 2022-07-16
